X:1
T:A hymne to God the Father
T:Pelham Humfrey
T:A hymne to God the Father
C:Pelham Humfrey
%%score 1 { ( 2 4 ) | 3 }
L:1/8
Q:1/4=63
M:2/2
K:Bb
V:1 treble-8 nm="Tenor" snm="T"
V:2 treble nm="Harpsichord" snm="Hpschd."
V:4 treble 
V:3 bass 
V:1
"^John Donne" z GGG G2 AB | ^FGGF G2 z A | A2 B2 c2 de | ABBA B4 | z ddd d2 e2 | c ccd B3 A | %6
w: Wilt thou for- give that _|sin where I be- gun, which|is my sin though _|it were done be- fore?|Wilt thou for- give those|sins, through which I run, and|
 B AGF =EF G2- | G2 F=E E3 D | D AAA B3 A | B2 B^F G2 A/B/c- | c2 BA z2 A>G | G8 | z ddd d2 e2 | %13
w: do run _ _ still, though still|_ I _ do de-|plore? When thou hast done, thou|hast not _ done, for _ _|_ _ _ I have|more.|Wilt thou for- give that|
 =BccB c2 _BA/B/ | A3/2 A/AB c2 d2 | B4 z AAA | A2 B2 G3/2 A/Bc | ^F3 G A=E =F2- | F2 G2 ^CDDC | %19
w: sin by which I've won o- thers to|sin? And made my sin their|door? Wilt thou for-|give that sin which I did|shun a year or two:|_ but wal- lowed in a|
 D AAA B3 A | B2 B^F G2 A/B/c- | c2 BA z2 A>G | G8 | z =BBc d2 e2 | B3/2 d/de f>fe>d | e4 z2 AA | %26
w: score? When thou hast done, thou|hast not _ done, for _ _|_ _ _ I have|more.|I have a sin of|fear, that when I've spun my last _|thread, I shall|
 BABc d3 D | G2 F =E/F/ E3/2 ^F<GA/ | ^F4 z ABc | d2 z c d2 =e2 | f2 ed c3 B | B2 z d BG e2 | %32
w: pe- rish on the shore; but|swear _ by thy self, that at my|death thy Sun shall|shine as he shines|now, and _ here- to-|fore; and, hav- ing done|
 ^F2 z B/A/ c4 | z AB>^F G4 |] %34
w: that, thou hast done,|I fear no more.|
V:2
 [B,D]/4[A,C]/4[B,D]3/2 [B,D]4 [A,C][G,B,] | [A,C][G,B,] [A,D]2 [B,D]3 [A,C] | %2
 [A,C]2 [B,D]2 [CE]2 [DF][CE]- | [CE][B,D] [CF]2 [DF]2 Bc | [FBd]6 [Bd]/4[Ac]/4[Bd]3/2 | %5
 cB[Ac]/4[GB]/4[Ac]3/2 [GB]3 [^FA] | [DB]4 [=EA]4- | [EA]2 [FB]2 =E2 A2 | %8
 [A,DF]2 [A,DF]2 [B,DF]3 [A,DF] | F2 ^F2 G2 [GA]2- | [GA]4 [GA]2 [CA]2 | G8 | G6 GA | %13
 [D=B] [Ec]2 [GB] [Gc]4 | [FA]4 [Ac]4 | [GB]4 [FA]4- | [FA]2 [DF]2 G2 [EG]2 | %17
 [D^F]4 [=EG]2 [D=F]2- | F2 =E2 ^C D2 C | D2 F2 F3 F | [DF]2 [D^F]2 G2 [GA]2- | [GA]4 [GA]2 [CA]2 | %22
 G8 | [G=B]6 [Ec]2 | [GBd]4 [G=Bd]4 | [EGc]4 [CFA]4 | [FB]2 [EAc]2 [FBd]4 | [DG]4 [=EG]2 [EA]2 | %28
 A4 z A[GB][Ac] | [FBd]3 [FAc] [FBd]2 [GB=e]2 | [df]2 [ce][Bd] c4 | [DFB]4 [B,EG]2 [CEG]2 | %32
 [A,D^F]3 [B,DF] [A,EG]4 | [DG]2 [D^F]2 [DG]4 |] %34
V:3
 G,,8 | D,,4 G,,4 | F,,8- | F,,4 B,,4 | B,6 G,2 | A,2 ^F,2 G,4 | G,,4 A,,4- | A,,2 G,,2 A,,4 | %8
 D,2 D,2 D,4 | D,4 E,3 D, | C,4 D,2 D,,2 | G,,8 | G,8- | G,2 F,2 =E,4 | F,4 ^F,4 | G,4 D,4- | %16
 D,4 E,2 C,2 | D,4 ^C,2 D,2 | G,,4 A,,4 | D,4 D,4 | D,4 E,3 D, | C,4 D,2 D,,2 | G,,8 | G,,8 | %24
 G,,4 G,,4 | C,4 F,3 E, | D,2 C,2 B,,4 | =B,,4 C,2 ^C,2 | D,6 C,2 | B,,2 F,2 B,2 G,2 | %30
 D,2 E,2 F,2 F,,2 | B,,4 E,2 C,2 | D,6 C,2 | D,2 D,,2 G,,4 |] %34
V:4
 x8 | x8 | x8 | x8 | z6 G2- | G2 D2- D3 ^F | G3 F ^C4 | ^C2 D2 D2 C2 | x8 | [B,D]2 [B,D]2 B,2 CD | %10
 E4 D2 G^F | [B,D]8 | [B,D]/4[A,C]/4[B,D]3/2- [B,D]4 [CE]2 | G3 D C4 | C4 D4 | D4 D4- | %16
 D2 B,2 B,2 A,2 | A,4 A,2 A,2 | [B,D]4 G, F,2 A, | [F,A,]2 [A,D]2 [B,D]3 [A,D] | B,2 B,2 B,2 CD | %21
 E4 D2 G^F | [B,D]8 | D6 GA | x8 | x8 | x8 | x8 | ^F4 z =F E2 | x8 | A2 G2 F2 E2 | x8 | x8 | %33
 A,2 B,>A, B,4 |] %34

